Assets/uiux_design.svg

<svg width="250" height="250" viewBox="0 0 250 250" fill="none" xmlns="http://www.w3.org/2000/svg">
<circle cx="125" cy="125" r="117.5" stroke="#F2F9F9" stroke-width="15"/>
<path d="M62.6943 143.287C59.9231 143.287 57.4545 142.729 55.2884 141.614C53.1224 140.468 51.4182 138.907 50.176 136.932C48.9655 134.957 48.3603 132.695 48.3603 130.147V109.554H56.5785V129.717C56.5785 130.928 56.8492 132.027 57.3907 133.014C57.9323 133.97 58.6649 134.734 59.5886 135.307C60.5124 135.849 61.5476 136.12 62.6943 136.12C63.9048 136.12 64.9718 135.849 65.8956 135.307C66.8512 134.734 67.6157 133.97 68.189 133.014C68.7624 132.027 69.0491 130.928 69.0491 129.717V109.554H76.9805V130.147C76.9805 132.695 76.3594 134.957 75.1171 136.932C73.9067 138.907 72.2185 140.468 70.0524 141.614C67.8864 142.729 65.4337 143.287 62.6943 143.287ZM84.4652 143V136.167H90.1032V116.387H84.4652V109.554H103.912V116.387H98.2258V136.167H103.912V143H84.4652ZM107.815 149.785L127.691 109.554H135.288L115.507 149.785H107.815ZM154.148 143.287C151.377 143.287 148.908 142.729 146.742 141.614C144.576 140.468 142.872 138.907 141.63 136.932C140.419 134.957 139.814 132.695 139.814 130.147V109.554H148.032V129.717C148.032 130.928 148.303 132.027 148.845 133.014C149.386 133.97 150.119 134.734 151.043 135.307C151.966 135.849 153.002 136.12 154.148 136.12C155.359 136.12 156.426 135.849 157.349 135.307C158.305 134.734 159.07 133.97 159.643 133.014C160.216 132.027 160.503 130.928 160.503 129.717V109.554H168.434V130.147C168.434 132.695 167.813 134.957 166.571 136.932C165.361 138.907 163.672 140.468 161.506 141.614C159.34 142.729 156.888 143.287 154.148 143.287ZM195.759 143L185.391 127.997L172.108 109.554H181.998L192.128 124.366L205.649 143H195.759ZM171.869 143L184.626 124.796L191.172 128.57L181.282 143H171.869ZM192.892 127.471L186.394 123.84L195.759 109.554H205.172L192.892 127.471Z" fill="#F2F9F9"/>
</svg>

<?xml version="1.0" encoding="utf-8"?>
<!-- Generator: Adobe Illustrator 26.0.3, SVG Export Plug-In . SVG Version: 6.00 Build 0)  -->
<svg version="1.1" id="Layer_1" xmlns="http://www.w3.org/2000/svg" xmlns:xlink="http://www.w3.org/1999/xlink" x="0px" y="0px"
	 viewBox="0 0 250 250" style="enable-background:new 0 0 250 250;" xml:space="preserve">
<style type="text/css">
	.st0{fill:none;stroke:#161615;stroke-width:15;}
</style>
<circle class="st0" cx="125" cy="125" r="117.5"/>
<path d="M62.7,143.3c-2.8,0-5.2-0.6-7.4-1.7c-2.2-1.1-3.9-2.7-5.1-4.7c-1.2-2-1.8-4.2-1.8-6.8v-20.6h8.2v20.2c0,1.2,0.3,2.3,0.8,3.3
	c0.5,1,1.3,1.7,2.2,2.3c0.9,0.5,2,0.8,3.1,0.8c1.2,0,2.3-0.3,3.2-0.8c1-0.6,1.7-1.3,2.3-2.3c0.6-1,0.9-2.1,0.9-3.3v-20.2H77v20.6
	c0,2.5-0.6,4.8-1.9,6.8c-1.2,2-2.9,3.5-5.1,4.7C67.9,142.7,65.4,143.3,62.7,143.3z M84.5,143v-6.8h5.6v-19.8h-5.6v-6.8h19.4v6.8
	h-5.7v19.8h5.7v6.8H84.5z M107.8,149.8l19.9-40.2h7.6l-19.8,40.2H107.8z M154.1,143.3c-2.8,0-5.2-0.6-7.4-1.7
	c-2.2-1.1-3.9-2.7-5.1-4.7c-1.2-2-1.8-4.2-1.8-6.8v-20.6h8.2v20.2c0,1.2,0.3,2.3,0.8,3.3c0.5,1,1.3,1.7,2.2,2.3
	c0.9,0.5,2,0.8,3.1,0.8c1.2,0,2.3-0.3,3.2-0.8c1-0.6,1.7-1.3,2.3-2.3c0.6-1,0.9-2.1,0.9-3.3v-20.2h7.9v20.6c0,2.5-0.6,4.8-1.9,6.8
	c-1.2,2-2.9,3.5-5.1,4.7C159.3,142.7,156.9,143.3,154.1,143.3z M195.8,143l-10.4-15l-13.3-18.4h9.9l10.1,14.8l13.5,18.6H195.8z
	 M171.9,143l12.8-18.2l6.5,3.8l-9.9,14.4H171.9z M192.9,127.5l-6.5-3.6l9.4-14.3h9.4L192.9,127.5z"/>
</svg>
